logos/tv.tvphd.svg

<?xml version="1.0" encoding="UTF-8" standalone="no"?>
<!-- Created with Inkscape (http://www.inkscape.org/) -->

<svg
   xmlns:html="http://www.w3.org/1999/xhtml"
   xmlns:dc="http://purl.org/dc/elements/1.1/"
   xmlns:cc="http://creativecommons.org/ns#"
   xmlns:rdf="http://www.w3.org/1999/02/22-rdf-syntax-ns#"
   xmlns:svg="http://www.w3.org/2000/svg"
   xmlns="http://www.w3.org/2000/svg"
   xmlns:xlink="http://www.w3.org/1999/xlink"
   xmlns:inkscape="http://www.inkscape.org/namespaces/inkscape"
   version="1.0"
   width="409"
   height="106"
   id="svg2">
  <metadata
     id="metadata91">
    <rdf:RDF>
      <cc:Work
         rdf:about="">
        <dc:format>image/svg+xml</dc:format>
        <dc:type
           rdf:resource="http://purl.org/dc/dcmitype/StillImage" />
      </cc:Work>
    </rdf:RDF>
  </metadata>
  <defs
     id="defs4">
    <radialGradient
       cx="0"
       cy="0"
       r="1"
       fx="0"
       fy="0"
       id="id548"
       gradientUnits="userSpaceOnUse"
       spreadMethod="pad">
      <stop
         id="stop9874"
         style="stop-color:#0089cf;stop-opacity:1"
         offset="0" />
      <stop
         id="stop9876"
         style="stop-color:#0089cf;stop-opacity:1"
         offset="0.015873" />
      <stop
         id="stop9878"
         style="stop-color:#0089cf;stop-opacity:1"
         offset="0.031746" />
      <stop
         id="stop9880"
         style="stop-color:#0089cf;stop-opacity:1"
         offset="0.047619" />
      <stop
         id="stop9882"
         style="stop-color:#0089cf;stop-opacity:1"
         offset="0.0634921" />
      <stop
         id="stop9884"
         style="stop-color:#0089cf;stop-opacity:1"
         offset="0.0793651" />
      <stop
         id="stop9886"
         style="stop-color:#0089cf;stop-opacity:1"
         offset="0.0952381" />
      <stop
         id="stop9888"
         style="stop-color:#0089cf;stop-opacity:1"
         offset="0.111111" />
      <stop
         id="stop9890"
         style="stop-color:#0089cf;stop-opacity:1"
         offset="0.126984" />
      <stop
         id="stop9892"
         style="stop-color:#0088ce;stop-opacity:1"
         offset="0.142857" />
      <stop
         id="stop9894"
         style="stop-color:#0088ce;stop-opacity:1"
         offset="0.15873" />
      <stop
         id="stop9896"
         style="stop-color:#0088ce;stop-opacity:1"
         offset="0.174603" />
      <stop
         id="stop9898"
         style="stop-color:#0087cd;stop-opacity:1"
         offset="0.190476" />
      <stop
         id="stop9900"
         style="stop-color:#0087cd;stop-opacity:1"
         offset="0.206349" />
      <stop
         id="stop9902"
         style="stop-color:#0086cc;stop-opacity:1"
         offset="0.222222" />
      <stop
         id="stop9904"
         style="stop-color:#0086cb;stop-opacity:1"
         offset="0.238095" />
      <stop
         id="stop9906"
         style="stop-color:#0086cb;stop-opacity:1"
         offset="0.253968" />
      <stop
         id="stop9908"
         style="stop-color:#0084ca;stop-opacity:1"
         offset="0.26984099" />
      <stop
         id="stop9910"
         style="stop-color:#0084ca;stop-opacity:1"
         offset="0.285714" />
      <stop
         id="stop9912"
         style="stop-color:#0084ca;stop-opacity:1"
         offset="0.30158699" />
      <stop
         id="stop9914"
         style="stop-color:#0083c8;stop-opacity:1"
         offset="0.31746" />
      <stop
         id="stop9916"
         style="stop-color:#0083c8;stop-opacity:1"
         offset="0.33333299" />
      <stop
         id="stop9918"
         style="stop-color:#0082c7;stop-opacity:1"
         offset="0.349206" />
      <stop
         id="stop9920"
         style="stop-color:#0081c6;stop-opacity:1"
         offset="0.36507899" />
      <stop
         id="stop9922"
         style="stop-color:#0080c5;stop-opacity:1"
         offset="0.380952" />
      <stop
         id="stop9924"
         style="stop-color:#0080c5;stop-opacity:1"
         offset="0.39682499" />
      <stop
         id="stop9926"
         style="stop-color:#007ec3;stop-opacity:1"
         offset="0.412698" />
      <stop
         id="stop9928"
         style="stop-color:#007ec3;stop-opacity:1"
         offset="0.42857099" />
      <stop
         id="stop9930"
         style="stop-color:#007dc2;stop-opacity:1"
         offset="0.444444" />
      <stop
         id="stop9932"
         style="stop-color:#007cc1;stop-opacity:1"
         offset="0.46031699" />
      <stop
         id="stop9934"
         style="stop-color:#007bc0;stop-opacity:1"
         offset="0.47619" />
      <stop
         id="stop9936"
         style="stop-color:#007abf;stop-opacity:1"
         offset="0.49206299" />
      <stop
         id="stop9938"
         style="stop-color:#0079be;stop-opacity:1"
         offset="0.50793701" />
      <stop
         id="stop9940"
         style="stop-color:#0078bd;stop-opacity:1"
         offset="0.52381003" />
      <stop
         id="stop9942"
         style="stop-color:#0077bc;stop-opacity:1"
         offset="0.53968298" />
      <stop
         id="stop9944"
         style="stop-color:#0076bb;stop-opacity:1"
         offset="0.555556" />
      <stop
         id="stop9946"
         style="stop-color:#0075ba;stop-opacity:1"
         offset="0.57142901" />
      <stop
         id="stop9948"
         style="stop-color:#0074b8;stop-opacity:1"
         offset="0.58730203" />
      <stop
         id="stop9950"
         style="stop-color:#0072b7;stop-opacity:1"
         offset="0.60317498" />
      <stop
         id="stop9952"
         style="stop-color:#0071b6;stop-opacity:1"
         offset="0.619048" />
      <stop
         id="stop9954"
         style="stop-color:#0070b5;stop-opacity:1"
         offset="0.63492101" />
      <stop
         id="stop9956"
         style="stop-color:#006eb3;stop-opacity:1"
         offset="0.65079403" />
      <stop
         id="stop9958"
         style="stop-color:#006db2;stop-opacity:1"
         offset="0.66666698" />
      <stop
         id="stop9960"
         style="stop-color:#006cb0;stop-opacity:1"
         offset="0.68254" />
      <stop
         id="stop9962"
         style="stop-color:#006aaf;stop-opacity:1"
         offset="0.69841301" />
      <stop
         id="stop9964"
         style="stop-color:#0069ad;stop-opacity:1"
         offset="0.71428603" />
      <stop
         id="stop9966"
         style="stop-color:#0067ac;stop-opacity:1"
         offset="0.73015898" />
      <stop
         id="stop9968"
         style="stop-color:#0066aa;stop-opacity:1"
         offset="0.746032" />
      <stop
         id="stop9970"
         style="stop-color:#0064a9;stop-opacity:1"
         offset="0.76190501" />
      <stop
         id="stop9972"
         style="stop-color:#0062a7;stop-opacity:1"
         offset="0.77777803" />
      <stop
         id="stop9974"
         style="stop-color:#0061a5;stop-opacity:1"
         offset="0.79365098" />
      <stop
         id="stop9976"
         style="stop-color:#005fa4;stop-opacity:1"
         offset="0.809524" />
      <stop
         id="stop9978"
         style="stop-color:#005da2;stop-opacity:1"
         offset="0.82539701" />
      <stop
         id="stop9980"
         style="stop-color:#005ca1;stop-opacity:1"
         offset="0.84127003" />
      <stop
         id="stop9982"
         style="stop-color:#005a9f;stop-opacity:1"
         offset="0.85714298" />
      <stop
         id="stop9984"
         style="stop-color:#00589d;stop-opacity:1"
         offset="0.873016" />
      <stop
         id="stop9986"
         style="stop-color:#00569b;stop-opacity:1"
         offset="0.88888901" />
      <stop
         id="stop9988"
         style="stop-color:#005499;stop-opacity:1"
         offset="0.90476203" />
      <stop
         id="stop9990"
         style="stop-color:#005398;stop-opacity:1"
         offset="0.92063498" />
      <stop
         id="stop9992"
         style="stop-color:#005095;stop-opacity:1"
         offset="0.936508" />
      <stop
         id="stop9994"
         style="stop-color:#004e94;stop-opacity:1"
         offset="0.95238101" />
      <stop
         id="stop9996"
         style="stop-color:#004c92;stop-opacity:1"
         offset="0.96825403" />
      <stop
         id="stop9998"
         style="stop-color:#004a90;stop-opacity:1"
         offset="0.98412699" />
      <stop
         id="stop10000"
         style="stop-color:#00488e;stop-opacity:1"
         offset="1" />
    </radialGradient>
    <radialGradient
       cx="0"
       cy="0"
       r="1"
       fx="0"
       fy="0"
       id="radialGradient24870"
       xlink:href="#id548"
       gradientUnits="userSpaceOnUse"
       gradientTransform="matrix(9.6519012,0,0,9.651886,472.55156,437.5224)"
       spreadMethod="pad" />
  </defs>
  <g
     transform="translate(-170.50226,-261.09601)"
     id="layer1">
    <g
       transform="matrix(1,0,0,-1,2.163092,1099.5982)"
       id="g20328">
      <use
         id="use20330"
         style="opacity:0.3"
         x="0"
         y="0"
         width="744.09448"
         height="1052.3622"
         xlink:href="#id45" />
    </g>
    <g
       transform="matrix(1,0,0,-1,2.163092,1099.5982)"
       id="g20340">
      <g
         transform="matrix(32.741791,0,0,34.129135,179.27458,540.55412)"
         id="g20342" />
      <g
         transform="translate(193.7816,556.0606)"
         id="g20344">
        <path
           d="M 0,0 0.011,0 -0.008,0 0,0 z"
           inkscape:connector-curvature="0"
           id="path20346"
           style="fill:#ffffff;fill-rule:nonzero;stroke:none" />
      </g>
    </g>
    <g
       transform="matrix(1,0,0,-1,2.163092,1099.5982)"
       id="g22060">
      <g
         transform="matrix(45.270813,0,0,52.660553,519.54996,404.4942)"
         id="g22062" />
    </g>
    <g
       transform="matrix(1,0,0,-1,2.163092,1099.5982)"
       id="g22638">
      <g
         transform="matrix(25.808578,0,0,25.602127,514.81136,507.87457)"
         id="g22640" />
    </g>
    <g
       transform="matrix(15.488584,0,0,15.488584,-6944.082,-6462.4015)"
       id="g12893">
      <path
         d="m 459.34375,434.09375 0,6.84375 26.40625,0 0,-6.84375 -26.40625,0 z"
         inkscape:connector-curvature="0"
         id="path24618"
         style="fill:url(#radialGradient24870)" />
      <g
         transform="matrix(1,0,0,-1,82.031396,840.6716)"
         id="g24620">
        <path
           d="m 379.152,405.479 10.401,0 0,-4.557 -10.401,0 0,4.557 z m 0.23,-0.205 3.159,0 0,-4.146 -3.159,0 0,4.146 z m 2.675,-1.23 0,0.547 -2.19,0 0,-0.547 0.791,0 0,-2.278 0.608,0 0,2.278 0.791,0 z m 2.295,-2.364 -1.308,2.945 0.635,0 0.651,-1.489 0.022,-0.089 0.024,0.09 0.649,1.488 0.636,0 -1.309,-2.945 z m 3.066,2.365 0.206,0 c 0.327,-0.006 0.49,-0.116 0.513,-0.441 -0.021,-0.338 -0.211,-0.445 -0.541,-0.451 l -0.178,0 0,0.892 z m -0.572,0.546 0,-2.825 0.573,0 0,0.862 0.122,-0.004 c 0.771,0 1.149,0.5 1.149,0.995 0,0.488 -0.366,0.972 -1.096,0.972 l -0.748,0 z m -0.684,0.683 3.159,0 0,-4.146 -3.159,0 0,4.146 z m -3.389,0 3.159,0 0,-4.146 -3.159,0 0,4.146 z"
           inkscape:connector-curvature="0"
           id="path24622"
           style="fill:#ffffff;fill-rule:evenodd;stroke:none" />
        <g
           transform="translate(391.4293,405.114)"
           id="g24624">
          <path
             d="m 0,0 0,-4.624 1.142,0.687 0,1.594 2.358,0 0,-1.499 1.149,0 0,4.58 -1.158,-0.704 0,-1.436 -2.346,0 0,1.406 L 0,0 z"
             inkscape:connector-curvature="0"
             id="path24626"
             style="fill:#ffffff;fill-rule:nonzero;stroke:none" />
        </g>
        <g
           transform="translate(396.8817,405.0564)"
           id="g24628">
          <path
             d="m 0,0 3.44,0 c 0,0 1.569,0.104 1.563,-1.22 0,-0.153 0,-1.466 0,-1.466 0,0 0.018,-1.152 -1.153,-1.146 -0.563,0.003 -2.403,0 -2.403,0 l 0.214,0.932 1.521,0 c 0,0 0.656,0.031 0.656,0.539 l 0,0.883 c 0,0 0.018,0.534 -0.669,0.534 l -2.004,0 0,-1.667 L 0,-3.777 0,0 z"
             inkscape:connector-curvature="0"
             id="path24630"
             style="fill:#ffffff;fill-rule:nonzero;stroke:none" />
        </g>
      </g>
    </g>
  </g>
  <html:div
     style="display:none"
     id="_wi2geoGate" />
</svg>

<?xml version="1.0" encoding="UTF-8" standalone="no"?>
<!-- Created with Inkscape (http://www.inkscape.org/) -->
<svg xmlns:dc="http://purl.org/dc/elements/1.1/" xmlns:cc="http://web.resource.org/cc/" xmlns:rdf="http://www.w3.org/1999/02/22-rdf-syntax-ns#" xmlns:svg="http://www.w3.org/2000/svg" xmlns="http://www.w3.org/2000/svg" xmlns:xlink="http://www.w3.org/1999/xlink" xmlns:sodipodi="http://sodipodi.sourceforge.net/DTD/sodipodi-0.dtd" xmlns:inkscape="http://www.inkscape.org/namespaces/inkscape" width="409" height="106" id="svg2" sodipodi:version="0.32" inkscape:version="0.45.1" version="1.0" inkscape:output_extension="org.inkscape.output.svg.inkscape">
  <defs id="defs4">
    <radialGradient spreadMethod="pad" cy="0" fx="0" r="1" cx="0" id="id548" gradientUnits="userSpaceOnUse" fy="0">
      <stop stop-color="#0089cf" offset="0" id="stop9874"/>
      <stop stop-color="#0089cf" offset=".015873" id="stop9876"/>
      <stop stop-color="#0089cf" offset=".031746" id="stop9878"/>
      <stop stop-color="#0089cf" offset=".047619" id="stop9880"/>
      <stop stop-color="#0089cf" offset=".0634921" id="stop9882"/>
      <stop stop-color="#0089cf" offset=".0793651" id="stop9884"/>
      <stop stop-color="#0089cf" offset=".0952381" id="stop9886"/>
      <stop stop-color="#0089cf" offset=".111111" id="stop9888"/>
      <stop stop-color="#0089cf" offset=".126984" id="stop9890"/>
      <stop stop-color="#0088ce" offset=".142857" id="stop9892"/>
      <stop stop-color="#0088ce" offset=".15873" id="stop9894"/>
      <stop stop-color="#0088ce" offset=".174603" id="stop9896"/>
      <stop stop-color="#0087cd" offset=".190476" id="stop9898"/>
      <stop stop-color="#0087cd" offset=".206349" id="stop9900"/>
      <stop stop-color="#0086cc" offset=".222222" id="stop9902"/>
      <stop stop-color="#0086cb" offset=".238095" id="stop9904"/>
      <stop stop-color="#0086cb" offset=".253968" id="stop9906"/>
      <stop stop-color="#0084ca" offset=".269841" id="stop9908"/>
      <stop stop-color="#0084ca" offset=".285714" id="stop9910"/>
      <stop stop-color="#0084ca" offset=".301587" id="stop9912"/>
      <stop stop-color="#0083c8" offset=".31746" id="stop9914"/>
      <stop stop-color="#0083c8" offset=".333333" id="stop9916"/>
      <stop stop-color="#0082c7" offset=".349206" id="stop9918"/>
      <stop stop-color="#0081c6" offset=".365079" id="stop9920"/>
      <stop stop-color="#0080c5" offset=".380952" id="stop9922"/>
      <stop stop-color="#0080c5" offset=".396825" id="stop9924"/>
      <stop stop-color="#007ec3" offset=".412698" id="stop9926"/>
      <stop stop-color="#007ec3" offset=".428571" id="stop9928"/>
      <stop stop-color="#007dc2" offset=".444444" id="stop9930"/>
      <stop stop-color="#007cc1" offset=".460317" id="stop9932"/>
      <stop stop-color="#007bc0" offset=".47619" id="stop9934"/>
      <stop stop-color="#007abf" offset=".492063" id="stop9936"/>
      <stop stop-color="#0079be" offset=".507937" id="stop9938"/>
      <stop stop-color="#0078bd" offset=".52381" id="stop9940"/>
      <stop stop-color="#0077bc" offset=".539683" id="stop9942"/>
      <stop stop-color="#0076bb" offset=".555556" id="stop9944"/>
      <stop stop-color="#0075ba" offset=".571429" id="stop9946"/>
      <stop stop-color="#0074b8" offset=".587302" id="stop9948"/>
      <stop stop-color="#0072b7" offset=".603175" id="stop9950"/>
      <stop stop-color="#0071b6" offset=".619048" id="stop9952"/>
      <stop stop-color="#0070b5" offset=".634921" id="stop9954"/>
      <stop stop-color="#006eb3" offset=".650794" id="stop9956"/>
      <stop stop-color="#006db2" offset=".666667" id="stop9958"/>
      <stop stop-color="#006cb0" offset=".68254" id="stop9960"/>
      <stop stop-color="#006aaf" offset=".698413" id="stop9962"/>
      <stop stop-color="#0069ad" offset=".714286" id="stop9964"/>
      <stop stop-color="#0067ac" offset=".730159" id="stop9966"/>
      <stop stop-color="#0066aa" offset=".746032" id="stop9968"/>
      <stop stop-color="#0064a9" offset=".761905" id="stop9970"/>
      <stop stop-color="#0062a7" offset=".777778" id="stop9972"/>
      <stop stop-color="#0061a5" offset=".793651" id="stop9974"/>
      <stop stop-color="#005fa4" offset=".809524" id="stop9976"/>
      <stop stop-color="#005da2" offset=".825397" id="stop9978"/>
      <stop stop-color="#005ca1" offset=".84127" id="stop9980"/>
      <stop stop-color="#005a9f" offset=".857143" id="stop9982"/>
      <stop stop-color="#00589d" offset=".873016" id="stop9984"/>
      <stop stop-color="#00569b" offset=".888889" id="stop9986"/>
      <stop stop-color="#005499" offset=".904762" id="stop9988"/>
      <stop stop-color="#005398" offset=".920635" id="stop9990"/>
      <stop stop-color="#005095" offset=".936508" id="stop9992"/>
      <stop stop-color="#004e94" offset=".952381" id="stop9994"/>
      <stop stop-color="#004c92" offset=".968254" id="stop9996"/>
      <stop stop-color="#004a90" offset=".984127" id="stop9998"/>
      <stop stop-color="#00488e" offset="1" id="stop10000"/>
    </radialGradient>
    <radialGradient inkscape:collect="always" xlink:href="#id548" id="radialGradient24870" gradientUnits="userSpaceOnUse" gradientTransform="matrix(9.6519012,0,0,9.651886,472.55156,437.5224)" spreadMethod="pad" cx="0" cy="0" fx="0" fy="0" r="1"/>
  </defs>
  <g inkscape:label="Layer 1" inkscape:groupmode="layer" id="layer1" transform="translate(-170.50226,-261.09601)">
    <g id="g20328" clip-path="url(#id42)" transform="matrix(1,0,0,-1,2.163092,1099.5982)">
      <use id="use20330" xlink:href="#id45" style="opacity:0.3" x="0" y="0" width="744.09448" height="1052.3622"/>
    </g>
    <g id="g20340" clip-path="url(#id49)" transform="matrix(1,0,0,-1,2.163092,1099.5982)">
      <g id="g20342" transform="matrix(32.741791,0,0,34.129135,179.27458,540.55412)"/>
      <g id="g20344" transform="translate(193.7816,556.0606)">
        <path id="path20346" d="M 0,0 L 0.011,0 L -0.008,0 L 0,0 z " style="fill:#ffffff;fill-rule:nonzero;stroke:none"/>
      </g>
    </g>
    <g id="g22060" clip-path="url(#id290)" transform="matrix(1,0,0,-1,2.163092,1099.5982)">
      <g id="g22062" transform="matrix(45.270813,0,0,52.660553,519.54996,404.4942)"/>
    </g>
    <g id="g22638" clip-path="url(#id430)" transform="matrix(1,0,0,-1,2.163092,1099.5982)">
      <g id="g22640" transform="matrix(25.808578,0,0,25.602127,514.81136,507.87457)"/>
    </g>
    <g id="g12893" transform="matrix(15.488584,0,0,15.488584,-6944.082,-6462.4015)">
      <path id="path24618" d="M 459.34375,434.09375 L 459.34375,440.9375 L 485.75,440.9375 L 485.75,434.09375 L 459.34375,434.09375 z " style="fill:url(#radialGradient24870)"/>
      <g transform="matrix(1,0,0,-1,82.031396,840.6716)" clip-path="none" id="g24620">
        <path style="fill:#ffffff;fill-rule:evenodd;stroke:none" d="M 379.152,405.479 L 389.553,405.479 L 389.553,400.922 L 379.152,400.922 L 379.152,405.479 z M 379.382,405.274 L 382.541,405.274 L 382.541,401.128 L 379.382,401.128 L 379.382,405.274 z M 382.057,404.044 L 382.057,404.591 L 379.867,404.591 L 379.867,404.044 L 380.658,404.044 L 380.658,401.766 L 381.266,401.766 L 381.266,404.044 L 382.057,404.044 z M 384.352,401.68 L 383.044,404.625 L 383.679,404.625 L 384.33,403.136 L 384.352,403.047 L 384.376,403.137 L 385.025,404.625 L 385.661,404.625 L 384.352,401.68 z M 387.418,404.045 L 387.624,404.045 C 387.951,404.039 388.114,403.929 388.137,403.604 C 388.116,403.266 387.926,403.159 387.596,403.153 L 387.418,403.153 L 387.418,404.045 z M 386.846,404.591 L 386.846,401.766 L 387.419,401.766 L 387.419,402.628 L 387.541,402.624 C 388.312,402.624 388.69,403.124 388.69,403.619 C 388.69,404.107 388.324,404.591 387.594,404.591 L 386.846,404.591 z M 386.162,405.274 L 389.321,405.274 L 389.321,401.128 L 386.162,401.128 L 386.162,405.274 z M 382.773,405.274 L 385.932,405.274 L 385.932,401.128 L 382.773,401.128 L 382.773,405.274 z " id="path24622"/>
        <g transform="translate(391.4293,405.114)" id="g24624">
          <path style="fill:#ffffff;fill-rule:nonzero;stroke:none" d="M 0,0 L 0,-4.624 L 1.142,-3.937 L 1.142,-2.343 L 3.5,-2.343 L 3.5,-3.842 L 4.649,-3.842 L 4.649,0.738 L 3.491,0.034 L 3.491,-1.402 L 1.145,-1.402 L 1.145,0.004 L 0,0 z " id="path24626"/>
        </g>
        <g transform="translate(396.8817,405.0564)" id="g24628">
          <path style="fill:#ffffff;fill-rule:nonzero;stroke:none" d="M 0,0 L 3.44,0 C 3.44,0 5.009,0.104 5.003,-1.22 C 5.003,-1.373 5.003,-2.686 5.003,-2.686 C 5.003,-2.686 5.021,-3.838 3.85,-3.832 C 3.287,-3.829 1.447,-3.832 1.447,-3.832 L 1.661,-2.9 L 3.182,-2.9 C 3.182,-2.9 3.838,-2.869 3.838,-2.361 L 3.838,-1.478 C 3.838,-1.478 3.856,-0.944 3.169,-0.944 L 1.165,-0.944 L 1.165,-2.611 L 0,-3.777 L 0,0 z " id="path24630"/>
        </g>
      </g>
    </g>
  </g>
<html:div xmlns:html="http://www.w3.org/1999/xhtml" id="_wi2geoGate" style="display:none"/></svg>
